web/public/assets/total-views.svg

<svg fill="none" height="44" viewBox="0 0 44 44" width="44" xmlns="http://www.w3.org/2000/svg"><rect fill="#f1f1f1" height="44" rx="22" width="44"/><path d="m22.0161 29.43c-6.09 0-10.9-6.21-11.43-6.86-.1236-.1594-.1842-.3588-.17-.56-.0036-.1829.0525-.3619.16-.51.21-.28 5.09-6.93 11.44-6.93s11.4 6.86 11.4 6.93c.1123.1461.1722.3257.17.51-.0015.1806-.0611.356-.17.5 0 .06-5 6.92-11.4 6.92zm-9.6-7.43c1.19 1.43 5.14 5.72 9.65 5.72s8.46-4.29 9.64-5.72c-1.23-1.43-5.18-5.71-9.69-5.71s-8.46 4.28-9.6 5.71z" fill="#1a1a1a"/><path d="m22.0161 25.84c-.2515-.0035-.5023-.0269-.75-.07-.7585-.1432-1.4557-.5127-2-1.06-.5499-.5409-.9171-1.2402-1.05-2-.141-.7424-.0574-1.51.2401-2.2047.2974-.6947.7953-1.285 1.4299-1.6953.6281-.4268 1.3706-.6534 2.13-.65.505-.0026 1.0055.0949 1.4726.2869s.8915.4748 1.2486.8319.6398.7815.8319 1.2486c.192.4671.2895.9676.2869 1.4726.0034.7594-.2232 1.5019-.65 2.13-.412.6451-1.0125 1.1479-1.72 1.44-.4666.191-.9659.2895-1.47.29zm0-6.2c-.1564-.0144-.3137-.0144-.47 0-.4628.0951-.8872.3247-1.22.66-.3368.3338-.5663.7605-.6589 1.2255-.0927.4651-.0443.9472.1389 1.3845.1763.4438.4805.8252.874 1.0959.3935.2706.8585.4182 1.336.4241.6332-.0032 1.2399-.2545 1.69-.7.3377-.3337.5684-.7604.6626-1.2258.0942-.4653.0477-.9481-.1336-1.3869-.1814-.4388-.4892-.8137-.8844-1.0768s-.8599-.4025-1.3346-.4005z" fill="#2667ff"/></svg>

<svg width="44" height="44" viewBox="0 0 44 44" fill="none" xmlns="http://www.w3.org/2000/svg">
<rect width="44" height="44" rx="22" fill="#F1F1F1"/>
<path d="M22.0161 29.43C15.9261 29.43 11.1161 23.22 10.5861 22.57C10.4625 22.4106 10.4019 22.2112 10.4161 22.01C10.4125 21.8271 10.4686 21.6481 10.5761 21.5C10.7861 21.22 15.6661 14.57 22.0161 14.57C28.3661 14.57 33.4161 21.43 33.4161 21.5C33.5284 21.6461 33.5883 21.8257 33.5861 22.01C33.5846 22.1906 33.525 22.366 33.4161 22.51C33.4161 22.57 28.4161 29.43 22.0161 29.43ZM12.4161 22C13.6061 23.43 17.5561 27.72 22.0661 27.72C26.5761 27.72 30.5261 23.43 31.7061 22C30.4761 20.57 26.5261 16.29 22.0161 16.29C17.5061 16.29 13.5561 20.57 12.4161 22Z" fill="#1A1A1A"/>
<path d="M22.0161 25.84C21.7646 25.8365 21.5138 25.8131 21.2661 25.77C20.5076 25.6268 19.8104 25.2573 19.2661 24.71C18.7162 24.1691 18.349 23.4698 18.2161 22.71C18.0751 21.9676 18.1587 21.2 18.4562 20.5053C18.7536 19.8106 19.2515 19.2203 19.8861 18.81C20.5142 18.3832 21.2567 18.1566 22.0161 18.16C22.5211 18.1574 23.0216 18.2549 23.4887 18.4469C23.9558 18.6389 24.3802 18.9217 24.7373 19.2788C25.0944 19.6359 25.3771 20.0603 25.5692 20.5274C25.7612 20.9945 25.8587 21.495 25.8561 22C25.8595 22.7594 25.6329 23.5019 25.2061 24.13C24.7941 24.7751 24.1936 25.2779 23.4861 25.57C23.0195 25.761 22.5202 25.8595 22.0161 25.86V25.84ZM22.0161 19.64C21.8597 19.6256 21.7024 19.6256 21.5461 19.64C21.0833 19.7351 20.6589 19.9647 20.3261 20.3C19.9893 20.6338 19.7598 21.0605 19.6672 21.5255C19.5745 21.9906 19.6229 22.4727 19.8061 22.91C19.9824 23.3538 20.2866 23.7352 20.6801 24.0059C21.0736 24.2765 21.5386 24.4241 22.0161 24.43C22.6493 24.4268 23.256 24.1755 23.7061 23.73C24.0438 23.3963 24.2745 22.9696 24.3687 22.5042C24.4629 22.0389 24.4164 21.5561 24.2351 21.1173C24.0537 20.6785 23.7459 20.3036 23.3507 20.0405C22.9555 19.7774 22.4908 19.638 22.0161 19.64Z" fill="#2667FF"/>
</svg>
